X:182
T:England the Home of the World. CJF.182
T:Downfall of Paris, aka. CJF.182
R:air
S:C.J.Fox MS, 1829/33, Beverley,E.Yorks.
N:Similar to Downfall of Paris in e.g. Thomas Hardy MS. – PJH.
B:Kidson Coll.Mitchell Lib.M1805
O:England
A:East Yorkshire
Z:vmp.P J Headford 2000 & 2008
M:2/4
L:1/16
Q:1/4=100
K:C
c2 cd c2 cd|c2 cd (fe) dc|d2 de d2 de|d2 de (gf) ed|!
e2 ef e2 ef|e2 efr (ag) fe|d2 de d2 de|d2 dc B2 hgB|!
c2 cd c2 cd|c2 cd fe dc|d2dc d2 dc|d2 de (gf) ed|!
e2 dc g2 gf|fe dc g3 f|(fe) dc g2 fd|c4z4|!
“pp”e6ee|f2e4e2|(e2f2) e2d2|d2c4d2|\
d4d2d2|e2d4d2|(a2f2) d2c2|c2B4c2|!
d4g2 B2|A4c2e2|e2d4c2|B6d2|\
g4d2B2|A4c2e2|d4e2f2|Hg8|!
c2 cB c2 cB|c2 cd (fe) dc|d2 de d2 de|d2 de (gf) ed|!
” f”e2 dc g3f|(fe) dc g3f|(fe)dc Hg2 fd|c4z4|]

